64x64/apps/pritunl_client_electron.svg

<svg xmlns="http://www.w3.org/2000/svg" width="64" height="64" version="1.1">
 <rect style="opacity:0.2" width="56" height="56" x="4" y="5" rx="7" ry="7"/>
 <rect style="fill:#2e4153" width="56" height="56" x="4" y="4" rx="7" ry="7"/>
 <path style="opacity:0.2" d="m 19.65625,15 c -2.596813,3.9e-5 -4.228117,0.655002 -4.914062,1.964844 -0.342979,0.67923 -0.56998,1.286693 -0.667969,1.820312 -0.04901,0.53369 -0.07423,1.36468 -0.07422,2.480468 V 61 H 26 V 49.789124 c 1.812846,2.231648 5.298686,3.347656 9.316406,3.347656 4.01767,0 7.788636,-1.86598 11.316406,-5.601562 C 50.209504,43.799648 51.99996,38.65938 52,33.710938 c -4e-5,-4.948406 -1.790496,-9.303456 -5.367188,-13.039062 -3.576766,-3.735542 -7.369044,-5.597618 -11.386718,-5.597657 -3.968722,3.9e-5 -7.317844,1.258558 -9.179688,3.78125 C 25.919402,17.594142 25.20826,16.654158 24.277344,16.023438 23.395396,15.344281 22.253042,15.000039 19.65625,15 Z m 12.246094,14 c 1.824298,2.4e-5 3.291376,0.63157 4.414062,1.894532 1.122632,1.216236 1.68357,2.600896 1.683594,4.14453 -2.4e-5,1.543674 -0.608028,2.920528 -1.824218,4.13672 -1.169458,1.216226 -2.624724,1.82423 -4.35547,1.824218 -1.684006,1.2e-5 -3.084392,-0.607992 -4.20703,-1.824218 C 26.537386,37.912808 25.999984,36.535958 26,35.039062 c -1.6e-5,-1.496854 0.537386,-2.881516 1.613282,-4.14453 C 28.689144,29.63157 30.124786,29.000024 31.902344,29 Z"/>
 <path style="fill:#f4f4f7" d="m 19.65625,14 c -2.596813,3.9e-5 -4.228117,0.655002 -4.914062,1.964844 -0.342979,0.67923 -0.56998,1.286693 -0.667969,1.820312 -0.04901,0.533689 -0.07423,1.364679 -0.07422,2.480468 V 60 H 26 V 48.789124 c 1.812846,2.231648 5.298686,3.347656 9.316406,3.347656 4.01767,0 7.788636,-1.86598 11.316406,-5.601562 C 50.209504,42.799648 51.99996,37.65938 52,32.710938 c -4e-5,-4.948406 -1.790496,-9.303456 -5.367188,-13.039063 -3.576766,-3.735541 -7.369044,-5.597617 -11.386718,-5.597656 -3.968722,3.9e-5 -7.317844,1.258558 -9.179688,3.78125 C 25.919402,16.594142 25.20826,15.654158 24.277344,15.023438 23.395396,14.344281 22.253042,14.000039 19.65625,14 Z m 12.246094,14 c 1.824298,2.4e-5 3.291376,0.63157 4.414062,1.894532 1.122632,1.216236 1.68357,2.600896 1.683594,4.14453 -2.4e-5,1.543674 -0.608028,2.920528 -1.824218,4.13672 -1.169458,1.216226 -2.624724,1.82423 -4.35547,1.824218 -1.684006,1.2e-5 -3.084392,-0.607992 -4.20703,-1.824218 C 26.537386,36.912808 25.999984,35.535958 26,34.039062 c -1.6e-5,-1.496854 0.537386,-2.881516 1.613282,-4.14453 C 28.689144,28.63157 30.124786,28.000024 31.902344,28 Z"/>
 <path style="opacity:0.1;fill:#f4f4f7" d="M 11 4 C 7.122 4 4 7.122 4 11 L 4 12 C 4 8.122 7.122 5 11 5 L 53 5 C 56.878 5 60 8.122 60 12 L 60 11 C 60 7.122 56.878 4 53 4 L 11 4 z"/>
</svg>

<svg xmlns="http://www.w3.org/2000/svg" width="64" height="64"><rect style="opacity:.2" width="56" height="56" x="4" y="5" rx="7" ry="7"/><rect style="fill:#2e4153" width="56" height="56" x="4" y="4" rx="7" ry="7"/><path style="opacity:.2" d="M19.656 15c-2.597 0-4.228.655-4.914 1.965-.343.68-.57 1.287-.668 1.82-.049.534-.074 1.365-.074 2.48V61h12V49.79c1.813 2.23 5.299 3.347 9.316 3.347 4.018 0 7.789-1.866 11.317-5.602C50.21 43.8 52 38.66 52 33.711s-1.79-9.304-5.367-13.04c-3.577-3.735-7.37-5.597-11.387-5.597-3.969 0-7.318 1.259-9.18 3.781-.147-1.26-.858-2.2-1.789-2.832-.882-.679-2.024-1.023-4.62-1.023zm12.246 14c1.825 0 3.292.632 4.414 1.895C37.44 32.11 38 33.495 38 35.039s-.608 2.92-1.824 4.137C35.006 40.392 33.55 41 31.82 41c-1.684 0-3.084-.608-4.207-1.824C26.537 37.913 26 36.536 26 35.039c0-1.497.537-2.881 1.613-4.144C28.69 29.632 30.125 29 31.903 29z"/><path style="fill:#f4f4f7" d="M19.656 14c-2.597 0-4.228.655-4.914 1.965-.343.68-.57 1.287-.668 1.82-.049.534-.074 1.365-.074 2.48V60h12V48.79c1.813 2.23 5.299 3.347 9.316 3.347 4.018 0 7.789-1.866 11.317-5.602C50.21 42.8 52 37.66 52 32.711s-1.79-9.304-5.367-13.04c-3.577-3.735-7.37-5.597-11.387-5.597-3.969 0-7.318 1.259-9.18 3.781-.147-1.26-.858-2.2-1.789-2.832-.882-.679-2.024-1.023-4.62-1.023zm12.246 14c1.825 0 3.292.632 4.414 1.895C37.44 31.11 38 32.495 38 34.039s-.608 2.92-1.824 4.137C35.006 39.392 33.55 40 31.82 40c-1.684 0-3.084-.608-4.207-1.824C26.537 36.913 26 35.536 26 34.039c0-1.497.537-2.881 1.613-4.144C28.69 28.632 30.125 28 31.903 28z"/><path style="opacity:.1;fill:#f4f4f7" d="M11 4c-3.878 0-7 3.122-7 7v1c0-3.878 3.122-7 7-7h42c3.878 0 7 3.122 7 7v-1c0-3.878-3.122-7-7-7H11z"/></svg>
